X: 30
T: Missa brevis &mdash; Kyrie
C: Gaspar van Weerbeke
%%abc-version 2.0
%%abcx-abcm2ps-target-version 5.9.1 (29 Sep 2008)
%%abc-creator hum2abc beta
%%abcx-conversion-date 2022/03/06 13:05:59
%%abc-copyright Copyright 2016, Kolb, Paul
%%abc-edited-by Zybina, Karina
%%humdrum-veritas 2087165059
%%humdrum-veritas-data 4102669576
%%linebreak <none>
%%barnumbers 0
L: 1/4
M: 2/2
N: Derived from Gas0201a-Missa_brevis-Kyrie.krn
%%staves [1 2 3 4]
V: 1 clef=treble
V: 2 clef=treble-8
V: 3 clef=treble-8
V: 4 clef=bass
K: F
[V:1] G3G | 
[V:2] d3d | 
[V:3] G3G | 
[V:4] G,3G, | 
[V:1] A>Bc2 | 
[V:2] f2_e2 | 
[V:3] c>d_e2 | 
[V:4] F,>_E,C,2 | 
[V:1] d3c/B/ | 
[V:2] d>cA2 | 
[V:3] f2df- | 
[V:4] B,,2D,2- | 
[V:1] AFG2 | 
[V:2] FA2G | 
[V:3] f/_e/d2c | 
[V:4] D,F,_E,2 | 
[V:1] F>GAB | 
[V:2] A2zG | 
[V:3] d4- | 
[V:4] D,>E,F,G, | 
[V:1] Ad2c/B/ | 
[V:2] AGA2 | 
[V:3] d2f2- | 
[V:4] F,G,D,2- | 
[V:1] A2B2 | 
[V:2] d4- | 
[V:3] f2g2 | 
[V:4] D,2G,2 | 
[V:1] ABc/B/A/G/ | 
[V:2] d2c3/B/ | 
[V:3] fd_e2 | 
[V:4] z2C,2 | 
[V:1] F>G A/B/c- | 
[V:2] A/G/F2G | 
[V:3] d>_ef_e | 
[V:4] D,3C, | 
[V:1] c/B/B2A | 
[V:2] FBFf- | 
[V:3] fdc2 | 
[V:4] D,B,,F,2 | 
[V:1] B2zc | 
[V:2] f_e/d/_e2 | 
[V:3] BB2A | 
[V:4] B,,D,C,2 | 
[V:1] d2cd- | 
[V:2] dfgb- | 
[V:3] B2_ed | 
[V:4] B,,2z2 | 
[V:1] dc/B/c2 | 
[V:2] b/a/g2^f | 
[V:3] Bd2c | 
[V:4] G,2A,2 | 
[V:1] B2AB- | 
[V:2] g2zf- | 
[V:3] d>_efd- | 
[V:4] G,2D,2 | 
[V:1] BA/G/FA- | 
[V:2] fe/d/cf- | 
[V:3] dc/B/Ac- | 
[V:4] D,/E,/F,/G,/A,F,- | 
[V:1] AG2^F | 
[V:2] f/e/d2d | 
[V:3] cBA2 | 
[V:4] F,G,D,2 | 
[V:1] G4 ||  
[V:2] d4 ||  
[V:3] G4 ||  
[V:4] G,4 ||  
[V:1] [M:2/2]z4 | 
[V:2] [M:2/2]z4 | 
[V:3] [M:2/2]z4 | 
[V:4] [M:2/2]D,2D,E,- | 
[V:1] z4 | 
[V:2] z4 | 
[V:3] G3A- | 
[V:4] E,D,/C,/E,F,- | 
[V:1] z4 | 
[V:2] z4 | 
[V:3] AG/F/GA | 
[V:4] F,E,/D,/E,F, | 
[V:1] z4 | 
[V:2] d3e- | 
[V:3] B>ABc | 
[V:4] G,>F,D,C, | 
[V:1] z4 | 
[V:2] ed/c/de | 
[V:3] A2B2 | 
[V:4] C>B,G,2 | 
[V:1] A3B- | 
[V:2] f>ecB | 
[V:3] c3d- | 
[V:4] F,>G,A,G,- | 
[V:1] BA/G/AB | 
[V:2] G2F2 | 
[V:3] def2 | 
[V:4] G,F,/E,/D,2 | 
[V:1] c3d- | 
[V:2] G2AB- | 
[V:3] e2cf | 
[V:4] C,3B,,- | 
[V:1] dc2=B | 
[V:2] B/A/G2g | 
[V:3] ecd2 | 
[V:4] B,,C,G,2 | 
[V:1] c2z2 | 
[V:2] e>f g/a/b- | 
[V:3] c2z2 | 
[V:4] A,CB,D- | 
[V:1] zGAc | 
[V:2] bg2^f | 
[V:3] z4 | 
[V:4] D/C/B,A,2 | 
[V:1] Bd2c/B/ | 
[V:2] g>fd3/e/ | 
[V:3] z2B2 | 
[V:4] G,2zG, | 
[V:1] Ac>BA/G/ | 
[V:2] fe/d/cA | 
[V:3] c4 | 
[V:4] F,A,>G,F,/E,/ | 
[V:1] F2DE- | 
[V:2] A2zG- | 
[V:3] d2Bc- | 
[V:4] D,2G,C, | 
[V:1] E/F/G2^F | 
[V:2] G/A/B/c/d2 | 
[V:3] cGA2 | 
[V:4] E,2D,2 | 
[V:1] G2z2 | 
[V:2] zgb3/a/ | 
[V:3] G4 | 
[V:4] z4 | 
[V:1] GBcd- | 
[V:2] g>fed | 
[V:3] z2zG | 
[V:4] G,2A,B, | 
[V:1] defe/d/ | 
[V:2] BGAa- | 
[V:3] Bcd3/e/ | 
[V:4] G,E,D,2 | 
[V:1] cded- | 
[V:2] ag/f/ea- | 
[V:3] fe/d/cd | 
[V:4] z2zD, | 
[V:1] d^cdB- | 
[V:2] a2fd | 
[V:3] e2d2- | 
[V:4] A,2B,2 | 
[V:1] BAB2 | 
[V:2] gfg3/a/ | 
[V:3] d4 | 
[V:4] G,D,G,2 | 
[V:1] A4 ||  
[V:2] ^f4 ||  
[V:3] d4 ||  
[V:4] D,4 ||  
[V:1] [M:2/2]z4 | 
[V:2] [M:2/2]z2d2 | 
[V:3] [M:2/2]A2B2 | 
[V:4] [M:2/2]z4 | 
[V:1] z4 | 
[V:2] e2d2 | 
[V:3] A>GFA | 
[V:4] z2D,2 | 
[V:1] z2d2 | 
[V:2] BG2F | 
[V:3] Gc2=B | 
[V:4] _E,2D,2 | 
[V:1] _e2d3/c/ | 
[V:2] G>AB2 | 
[V:3] c2zd- | 
[V:4] C,2G,2 | 
[V:1] BcAd- | 
[V:2] G2F2 | 
[V:3] def2 | 
[V:4] zC,D,2 | 
[V:1] dBA2 | 
[V:2] G/A/B/c/d2 | 
[V:3] dg2^f | 
[V:4] G,2D,2 | 
[V:1] GB2A/G/ | 
[V:2] _ed/c<Bc/ | 
[V:3] g2d3/e/ | 
[V:4] z2G,2 | 
[V:1] FA>Bc- | 
[V:2] d>cAG | 
[V:3] fdc_e | 
[V:4] D,>_E,F,C, | 
[V:1] c/B/B2A | 
[V:2] FB2f | 
[V:3] fdc2 | 
[V:4] D,B,,F,2 | 
[V:1] B2z2 | 
[V:2] d>e f/g/a/b/ | 
[V:3] B2z2 | 
[V:4] G,>F,D,F,- | 
[V:1] z4 | 
[V:2] a3/g//f// e/d/e | 
[V:3] z4 | 
[V:4] F,/G,/A,/B,/C2 | 
[V:1] z4 | 
[V:2] dg2^f | 
[V:3] z4 | 
[V:4] G,B,A,2 | 
[V:1] G/A/B/c/ d/_e/d- | 
[V:2] g2z2 | 
[V:3] B2B/c/d/e/ | 
[V:4] G,2z2 | 
[V:1] dc/B/ A/G/B | 
[V:2] z4 | 
[V:3] fe/d/cd- | 
[V:4] z4 | 
[V:1] AG2F | 
[V:2] z2d2 | 
[V:3] dc/B/A2 | 
[V:4] z2D,2 | 
[V:1] DG>EA- | 
[V:2] B_e2d/c/ | 
[V:3] B2c2 | 
[V:4] G,2C,F,- | 
[V:1] A/G/^F/E/F2 | 
[V:2] d2zd | 
[V:3] A4 | 
[V:4] F,/E,/D,/C,/D,2 | 
[V:1] G4- | 
[V:2] B_e2d/c/ | 
[V:3] G4- | 
[V:4] _E,C,>B,,C, | 
[V:1] G4 |]  
[V:2] d4 |]  
[V:3] G4 |]  
[V:4] G,4 |]  


